X: 5139
T: Brig O' Balater, The
R: strathspey
M: 4/4
K: Cmajor
C>EG>A c<GA>a|g>eg<e d2d<e|C>EG>A c<GA>a|g>eg<e c2c<e|
C>EG>A c<GA>a|g>eg<e d2d<e|C>EG>A c<GA>a|g>eg<e c2 (3cef||
g<ce>c g>cf>a|g>eg<e d2 (3def|g<ce>c g>cf>a|g<ce>d c2 (3cef|
g<ce>c g>cf>a|g>eg<e d2d<e|C>EG>A c<GA>a|g>eg<e c2 c<e||

